X:1
T:Mars in a fury - Weelkes
T:James Gibb editions
T:#
%%score { 1 | 2 } { 3 | 4 } 5 6
L:1/8
Q:1/4=132
M:4/4
K:Bb
V:1 treble nm="Soprano I" snm="S"
V:2 treble 
V:3 treble nm="Alto I" snm="A"
V:4 treble 
V:5 treble-8 nm="Tenor" snm="T"
V:6 bass nm="Bass" snm="B"
V:1
 B4 B2 B2 | (fede fed"^Mars in a fury"c | dcBc dcBA) | G6 d2 | %4
w: Mars in a|fu\- * * * * * * *||ry 'gainst|
 e4 e2"^Thomas Weelkes\n(1574-1623)" d2 |[M:4/4] f2 d2 c3 c | d8- | d8 | z2 B2 B2 B2 | (edcd edcB | %10
w: Love's bright- est|queen, Love's bright- est|queen,||Mars in a|fu\- * * * * * * *|
 A3 B) c2 f2- | fe (d2 c2) B2 | A2 c2 d2 e2 | f6 (ed) | c2 F2 F3 F | c4 z4 | z8 | A4 A2 A2 | %18
w: * * ry 'gainst|* Love's bright\- * est|queen, Put on his|helm and *|took him to his|lance,||And march- ing|
 A4 A4 | d4 B4 | B2 B2 B4 | B4 f2 f2 | d2 de f2 B2 | B2 Bc d4 | z4 z2 d2 | e6 e2 | e8 | %27
w: to the|mount, and|march- ing to|the mount this|war- rior was seen, this|war- rior was seen,|And|there his|en-|
 d2 g4 (fe) | d2 c2 =B2 g2- | g2 (fe) d2 d2 | =e2 (f4 e2) | f8 | z8 | z8 | d2 d2 g4 | =e2 c2 f4 | %36
w: signs did the *|god ad- vance, did|* the * god ad-|vance, ad\- *|vance,|||And by heaven's|great- est gates|
 z4 z2 =e2 | f3 d c2 z2 | z2 d2 f3 d | c2 d2 f3 d | c8 | z8 | z8 | z8 | z8 | z8 | z4 F4- | %47
w: he|stout- ly swore,|he stout- ly|swore, he stout- ly|swore,||||||Ve\-|
 F2 F2 =E4 | F4 D4 | C4 F4- | F2 E2[Q:1/4=130] D4 |[Q:1/4=128] C4[Q:1/4=124] (B,4[Q:1/4=126] | %52
w: * nus should|die, should|die, for|* she had|wrong'd him|
[Q:1/4=120] C8)[Q:1/4=118] |[Q:1/4=114] !fermata!D8 |] %54
w: |sore.|
V:2
 z8 | B4 B2 B2 | (fede fedc | dcBc dcBA | G2) c2 G2 B2 |[M:4/4] (A2 B4) A2 | B8- | B8 | %8
w: |Mars in a|fu\- * * * * * * *||* ry 'gainst Love's|bright\- * est|queen,||
 z2 G2 G2 G2 | (gfef gfed) | c2 f3 e (d2 | c2) B2 A2 z2 | z2 A2 B2 c2 | d6 (cB) | A2 c2 A2 d2 | %15
w: Mars in a|fu\- * * * * * * *|ry gainst Love's bright\-|* est queen,|Put on his|helm and *|took him to his|
 G4 z4 | z8 | c4 c2 c2 | c4 c4 | f4 F4 | F2 F2 F4 | F4 d2 d2 | B2 Bc d2 f2 | d2 de f4 | z4 z2 B2 | %25
w: lance,||And march- ing|to the|mount, and|march- ing to|the mount this|war- rior was seen, this|war- rior was seen,|And|
 B6 B2 | (B4 c4) | =B4 z2 g2- | g2 (fe) d2 c2 | =B2 c4 B2 | (c2 A2) G4 | A8 | z8 | c2 c2 f4 | %34
w: there his|en\- *|signs did|* the * god ad-|vance, did the|god * ad-|vance,||And by heaven's|
 d2 =B2 c4 | z8 | z8 | z2 d2 f3 d | c2 z2 z2 d2 | f3 d c2 z2 | z4 c4- | c2 c2 =B4 | c4 A4 | %43
w: great- est gates|||he stout- ly|swore, he|stout- ly swore,|Ve\-|* nus should|die, for|
 G4 F2 F2- | F2 (=ED E4) | F8- | F8 | z8 | z4 F4- | F2 E2 D4 | C4 D4 | F8 | F8 | !fermata!F8 |] %54
w: she had wrong'd|* him * *|sore,|||for|* she had|wrong'd him|sore,|him|sore.|
V:3
 z8 | z8 | B,4 B,2 B,2 | (BAGA BAGF | EDCD EF G2) |[M:4/4] F8 | F4 D2 F2- | F2 G2 F2 G2- | %8
w: ||Mars in a|fu\- * * * * * * *||ry|'gainst Love's bright\-|* est queen, 'gainst|
 G2 B2 B,2 B,2 | C2 C4 E2 | F4 z2 F2- | F2 B,2 C2 (DE) | F4 z4 | z2 D2 F2 G2 | A6 (GF) | %15
w: * Love's bright- est|queen, bright- est|queen, 'gainst|* Love's bright- est *|queen,|Put on his|helm and *|
 =E2 G2 C2 D2 | C8 | z4 F4 | F2 F2 F4 | F4 B2 F2 | D2 DE F2 D2 | B,2 B,C B,4 | z2 F2 D2 DE | %23
w: took him to his|lance,|And|march- ing to|the mount this|war- rior was seen, this|war- rior was seen,|this war- rior was|
 F4 z2 B,2 | D6 D2 | G8- | G4 E4 | G4 G4 | G8 | G8 | G2 A2 c4 | z4 F2 F2 | B4 G2 G2 | A4 D2 D2 | %34
w: seen, And|there his|en\-|* signs|did the|god|ad-|vance, ad- vance,|And by|heaven's great- est|gates, and by|
 G4 =E2 C2 | G4 z2 A2 | c3 A G4 | z4 z2 D2 | F3 D C2 B,2 | C2 B,2 A,2 A,2- | A,2 A,2 G,4 | %41
w: heaven's great- est|gates he|stout- ly swore,|he|stout- ly swore, he|stout- ly swore Ve\-|* nus should|
 A,4 F,4 | G,4 C4- | C2 B,2 A,4 | G,6 G,2 | A,4 B,4 | F,6 F,2 | B,8 | C4 F,4- | F,4 z4 | z4 F4- | %51
w: die, should|die, for|* she had|wrong'd him|sore, for|she had|wrong'd|him sore,||for|
 F2 E2 D4 | C6 C2 | !fermata!B,8 |] %54
w: * she had|wrong'd him|sore.|
V:4
 z8 | z8 | z8 | z8 | z8 |[M:4/4] z8 | z8 | z2 B,2 B,2 B,2 | (BAGA BAGF | EFGF EF G2) | C4 F3 G | %11
w: |||||||Mars in a|fu\- * * * * * * *||ry 'gainst Love's|
 A2 B2 F4 | z8 | z8 | z2 C2 C2 D2 | =E3 D (EF) (G2- | GF) F4 =E2 | F8 | C4 C2 C2 | B,4 B,4 | %20
w: bright- est queen,|||Put on his|helm and took * him|* * to his|lance,|And march- ing|to the|
 B2 F2 B,2 B,B, | D2 F2 D2 DE | F2 D2 B,2 B,C | D4 z2 D2 | F6 F2 | E8 | E4 G4- | G2 (FE) D2 C2 | %28
w: mount this war- rior was|seen, this war- rior was|seen, this war- rior was|seen, And|there his|en-|signs did|* the * god ad-|
 =B,2 C2 D2 E2 | (D2 C2 D4) | z8 | z4 C2 C2 | G4 =E2 C2 | F8 | z4 G2 G2 | c4 A2 F2 | F2 A2 c3 G | %37
w: vance, the god ad-|vance, * *||And by|heaven's great- est|gates,|and by|heaven's great- est|gates he stout- ly|
 A2 B2 F4- | F4 F4 | F8- | F4 z4 | F6 F2 | =E4 E2 F2 | G4 C4 | C6 C2 | C4 D4- | D2 D2 C4 | D4 B,4 | %48
w: swore, he stout\-|* ly|swore,||Ve- nus|should die, for|she had|wrong'd him|sore, Ve\-|* nus should|die, for|
 A,6 B,2 | C4 B,4 | A,2 F,2 F,2 G,2 | (A,4 B,4- | B,4) A,4 | !fermata!B,8 |] %54
w: she had|wrong'd him|sore, for she had|wrong'd *|* him|sore.|
V:5
 z8 | z8 | z8 | z8 | z8 |[M:4/4][K:treble-8] F4 F2 F2 | (fede fedc | dcBc dcBA) | B2 B2 G2 G2- | %9
w: |||||Mars in a|fu\- * * * * * * *||ry 'gainst Love's bright\-|
 G2 G2 G4 | z4 z2 A2- | A2 d2 (fe) d2 | c4 z4 | z8 | z2 F2 A2 B2 | (c3 B/A/ G2) B2 | A2 A2 G3 G | %17
w: * est queen,|'gainst|* Love's bright\- * est|queen,||Put on his|helm * * * and|took him to his|
 F4 F4 | F2 F2 F4 | F4 d2 d2 | B2 Bc d2 f2 | d2 de f4 | F2 F3 F F2 | F4 z2 F2 | B6 B2 | B8 | G8 | %27
w: lance, And|march- ing to|the mount this|war- rior was seen, this|war- rior was seen,|this war- rior was|seen, And|there his|en-|signs|
 G3 A =B2 c2 | d2 (ef) g4 | G2 g3 (f/e/ d2) | c8 | F2 F2 f4 | d2 B2 c4 | z8 | z8 | z4 F2 F2 | %36
w: did the god ad-|vance, ad\- * vance,|the god ad\- * *|vance,|And by heaven's|great- est gates,|||and by|
 f4 =e2 c2 | f4 z2 B2 | A2 B2 F2 B2 | A2 B2 F2 F2- | F2 F2 =E4 | F4 D4 | C6 D2 | (=E4 F4) | C8 | %45
w: heaven's great- est|gates he|stout- ly swore, he|stout- ly swore Ve\-|* nus should|die, for|she had|wrong'd *|him|
 F8 | z4 F4- | F2 F2 G4 | C4 z4 | F4 F2 G2 | A4 B4 | c4 F4- | F4 F4 | !fermata!F8 |] %54
w: sore,|Ve\-|* nus should|die,|for she had|wrong'd him|sore, wrong'd|* him|sore.|
V:6
 z8 | z8 | z8 | z8 | z8 |[M:4/4] z8 | B,,4 B,,2 B,,2 |"^11" (B,A,G,A, B,A,G,F, | %8
w: ||||||Mars in a|fu\- * * * * * * *|
 G,F,E,F, G,F,E,D, | C,8 | F,4 F,4- | F,2 G,2 A,2 B,2 | F,4 z4 | z2 B,,2 D,2 E,2 | F,6 E,D,) | %15
w: ||ry 'gainst|* Love's bright- est|queen,|Put on his|helm and *|
 C,2 C,2 C,2 B,,2 | C,8 | z8 | z8 | B,,4 B,,2 B,,2 | B,,4 B,,4 | B,6 B,,2- | B,,2 B,,3 B,, B,,2 | %23
w: took him to his|lance,|||And march- ing|to the|mount this|* war- rior was|
 B,,8 | z4 z2 B,,2 | E,6 E,2 | E,4 C,4 | G,8- | G,4 G,4 | G,4 G,4 | C,4 C,2 C,2 | C4 A,2 F,2 | %32
w: seen,|And|there his|en- signs|did|* the|god ad-|vance, And by|heaven's great- est|
 G,4 z4 | z8 | z8 | C,2 C,2 C4 | A,2 F,2 C4 | z8 | z2 B,2 A,2 B,2 | F,2 B,2 A,2 B,2 | F,2 z2 z4 | %41
w: gates,|||and by heaven's|great- est gates||he stout- ly|swore, he stout- ly|swore|
 z8 | z8 | z8 | z8 | z4 B,,4- | B,,2 B,,2 A,,4 | B,,4 G,,4 | F,,6 G,,2 | A,,4 B,,4 | F,,4 (F,,4- | %51
w: ||||Ve-|* nus should|die, for|she had|wrong'd him|sore, wrong'd|
 F,,4 B,,4) | F,,8 | !fermata!B,,8 |] %54
w: |him|sore.|

